X: 20821
T: PHILANDER WAS A MERRY SWAIN.
O: From "Playford's Collection."
Q: "Moderate."
%R: air, reel
B: W. Hamilton "Universal Tune-Book" Vol. 2 Glasgow 1846 p.82 #1
S: http://s3-eu-west-1.amazonaws.com/itma.dl.printmaterial/book_pdfs/hamiltonvol2web.pdf
Z: 2016 John Chambers <jc:trillian.mit.edu>
N: Bars 6,7 have odd overlapping slurs; transcribed as in other similar bars.
M: C
L: 1/8
K: C
% - - - - - - - - - - - - - - - - - - - - - - - - -
G2 |\
c3e d2g2 | (ef)(dc) B3c | A2d2 (Bc)(AG) | ^F6 G2 |\
E3B (cB)(AG) | (de)(dc) e3c | (fe)(dc)  A3G | G6 |]\
d2 |\
A3B c2c2 | ^c3c d3B |
(cB)(cd) d3e | e6 g2 |\
e3a (ge)(dc) | (B/c/d d2 e)df2 | (fe)(dc) B3e | f3e d3e |\
c4 (cBA)G | A3B c3B | d3d e3f | (ef)(dc) c3B | c6 |]
% - - - - - - - - - - - - - - - - - - - - - - - - -

%%sep 1 1 500
%%sep 1 1 500

